X:190
T:Lad O'Beirne's
Z: id:dc-reel-173
M:C
L:1/8
K:G Major
E|DGG2 DGBG|AcBG AGEG|DGG2 DGBd|edgd edge|!
dBB2 dBGB|cEE2 GEDB,|DEGA B3c|dBAc BGG:|!
B|d2e^c d2Bd|edgd edge|dBB2 dBGB|cEE2 GED2|!
Bdd^c d2ef|g2fg edBG|DEGA B3c|dBAc BGG:|!